!!!OTL@@FUR: E Tunin al &egrave; un biel zovin
!!!OTL@IT: Antonino &egrave; un bel ragazzo
!!!OTL@EN: Antonio is a handsome man
**kern
*clefG2
*k[b-]
*F:
*M4/4
*MM60
*>[A,B,C,B,D]
*>A
4cc
4dd
=1!|:
*>B
4ee
8ff
8ee
8dd
8cc
8dd
8b-
=2
4.a
8b-
4cc
4dd
=3
4.g
8a
4b-
4cc
=4
4.a
8b-
4cc
4dd
=5
4ee
8ff
8ee
8dd
8cc
8dd
8b-
=6
4.a
8b-
4cc
4dd
=7
4.g
8a
4b-
4cc
=8||
*>C
4.a
8r
4cc
4dd
=9:|!
*>D
[2a
8a]
8r
4r
==
*-
!!!ARE: Friuli
!!!ENC: Kelly Leistikow
!!!END: 2002/03/07
!!!ref: @{OTL@@FUR}/@{OTL@EN}
